svg/color/ethdown.svg

<?xml version="1.0" encoding="UTF-8" ?>
<!DOCTYPE svg PUBLIC "-//W3C//DTD SVG 1.1//EN" "http://www.w3.org/Graphics/SVG/1.1/DTD/svg11.dtd">
<svg width="250pt" height="250pt" viewBox="0 0 250 250" version="1.1" xmlns="http://www.w3.org/2000/svg">
<g id="#ffffffff">
<path fill="#ffffff" opacity="1.00" d=" M 0.00 0.00 L 124.95 0.00 C 99.43 25.68 73.70 51.16 48.21 76.86 C 57.73 86.16 66.85 95.89 76.60 104.95 C 92.70 88.78 108.84 72.65 125.00 56.54 C 141.31 72.61 157.25 89.08 173.72 104.99 C 183.08 95.62 192.45 86.25 201.82 76.88 C 176.37 51.38 150.99 25.81 125.35 0.52 L 126.05 0.00 L 250.00 0.00 L 250.00 124.95 C 240.62 115.66 231.29 106.32 221.99 96.95 C 221.17 97.45 220.43 98.03 219.75 98.71 C 211.06 107.52 202.23 116.20 193.53 125.00 C 202.20 133.81 211.03 142.47 219.71 151.28 C 220.39 151.97 221.15 152.56 222.00 153.05 C 231.36 143.87 240.31 134.21 250.00 125.41 L 250.00 250.00 L 125.06 250.00 C 150.58 224.30 176.32 198.82 201.83 173.11 C 192.47 163.74 183.08 154.39 173.72 145.02 C 157.25 160.92 141.29 177.38 125.00 193.48 C 108.71 177.39 92.76 160.94 76.31 145.04 C 66.94 154.40 57.55 163.75 48.17 173.10 C 73.19 198.30 98.39 223.33 123.46 248.48 C 123.74 248.86 124.29 249.62 124.57 250.00 L 0.00 250.00 L 0.00 125.06 C 9.39 134.34 18.71 143.71 28.04 153.06 C 29.86 151.92 31.24 150.25 32.75 148.75 C 40.66 140.83 48.60 132.93 56.49 125.00 C 47.18 115.71 37.96 106.33 28.57 97.14 C 26.80 97.40 25.87 99.42 24.52 100.47 C 16.29 108.45 8.54 116.98 0.00 124.59 L 0.00 0.00 M 96.30 125.00 C 105.84 134.59 115.42 144.15 125.00 153.71 C 134.59 144.16 144.16 134.59 153.71 125.00 C 144.16 115.41 134.60 105.84 125.00 96.29 C 115.41 105.84 105.84 115.40 96.30 125.00 Z" />
</g>
<g id="#f3ba2fff">
<path fill="#f3ba2f" opacity="1.00" d=" M 124.95 0.00 L 126.05 0.00 L 125.35 0.52 C 150.99 25.81 176.37 51.38 201.82 76.88 C 192.45 86.25 183.08 95.62 173.72 104.99 C 157.25 89.08 141.31 72.61 125.00 56.54 C 108.84 72.65 92.70 88.78 76.60 104.95 C 66.85 95.89 57.73 86.16 48.21 76.86 C 73.70 51.16 99.43 25.68 124.95 0.00 Z" />
<path fill="#f3ba2f" opacity="1.00" d=" M 24.52 100.47 C 25.87 99.42 26.80 97.40 28.57 97.14 C 37.96 106.33 47.18 115.71 56.49 125.00 C 48.60 132.93 40.66 140.83 32.75 148.75 C 31.24 150.25 29.86 151.92 28.04 153.06 C 18.71 143.71 9.39 134.34 0.00 125.06 L 0.00 124.59 C 8.54 116.98 16.29 108.45 24.52 100.47 Z" />
<path fill="#f3ba2f" opacity="1.00" d=" M 96.30 125.00 C 105.84 115.40 115.41 105.84 125.00 96.29 C 134.60 105.84 144.16 115.41 153.71 125.00 C 144.16 134.59 134.59 144.16 125.00 153.71 C 115.42 144.15 105.84 134.59 96.30 125.00 Z" />
<path fill="#f3ba2f" opacity="1.00" d=" M 219.75 98.71 C 220.43 98.03 221.17 97.45 221.99 96.95 C 231.29 106.32 240.62 115.66 250.00 124.95 L 250.00 125.41 C 240.31 134.21 231.36 143.87 222.00 153.05 C 221.15 152.56 220.39 151.97 219.71 151.28 C 211.03 142.47 202.20 133.81 193.53 125.00 C 202.23 116.20 211.06 107.52 219.75 98.71 Z" />
<path fill="#f3ba2f" opacity="1.00" d=" M 76.31 145.04 C 92.76 160.94 108.71 177.39 125.00 193.48 C 141.29 177.38 157.25 160.92 173.72 145.02 C 183.08 154.39 192.47 163.74 201.83 173.11 C 176.32 198.82 150.58 224.30 125.06 250.00 L 124.57 250.00 C 124.29 249.62 123.74 248.86 123.46 248.48 C 98.39 223.33 73.19 198.30 48.17 173.10 C 57.55 163.75 66.94 154.40 76.31 145.04 Z" />
</g>
</svg>

<?xml version="1.0" encoding="utf-8"?>
<!-- Generator: Adobe Illustrator 26.0.3, SVG Export Plug-In . SVG Version: 6.00 Build 0)  -->
<svg version="1.1" id="Layer_1" xmlns="http://www.w3.org/2000/svg" xmlns:xlink="http://www.w3.org/1999/xlink" x="0px" y="0px"
	 viewBox="0 0 250 250" style="enable-background:new 0 0 250 250;" xml:space="preserve">
<style type="text/css">
	.st0{fill:#F3BA2F;}
</style>
<g id="_x23_f3ba2fff">
	<path class="st0" d="M124.9,0h1.1l-0.7,0.5c25.6,25.3,51,50.9,76.5,76.4c-9.4,9.4-18.7,18.7-28.1,28.1
		c-16.5-15.9-32.4-32.4-48.7-48.4c-16.2,16.1-32.3,32.2-48.4,48.4c-9.8-9.1-18.9-18.8-28.4-28.1C73.7,51.2,99.4,25.7,124.9,0z"/>
	<path class="st0" d="M24.5,100.5c1.4-1.1,2.3-3.1,4-3.3c9.4,9.2,18.6,18.6,27.9,27.9c-7.9,7.9-15.8,15.8-23.7,23.8
		c-1.5,1.5-2.9,3.2-4.7,4.3c-9.3-9.3-18.7-18.7-28-28v-0.5C8.5,117,16.3,108.4,24.5,100.5z"/>
	<path class="st0" d="M96.3,125c9.5-9.6,19.1-19.2,28.7-28.7c9.6,9.5,19.2,19.1,28.7,28.7c-9.6,9.6-19.1,19.2-28.7,28.7
		C115.4,144.1,105.8,134.6,96.3,125z"/>
	<path class="st0" d="M219.8,98.7c0.7-0.7,1.4-1.3,2.2-1.8c9.3,9.4,18.6,18.7,28,28v0.5c-9.7,8.8-18.6,18.5-28,27.6
		c-0.9-0.5-1.6-1.1-2.3-1.8c-8.7-8.8-17.5-17.5-26.2-26.3C202.2,116.2,211.1,107.5,219.8,98.7z"/>
	<path class="st0" d="M76.3,145c16.5,15.9,32.4,32.4,48.7,48.4c16.3-16.1,32.2-32.6,48.7-48.5c9.4,9.4,18.8,18.7,28.1,28.1
		c-25.5,25.7-51.2,51.2-76.8,76.9h-0.5c-0.3-0.4-0.8-1.1-1.1-1.5c-25.1-25.1-50.3-50.2-75.3-75.4C57.5,163.8,66.9,154.4,76.3,145z"
		/>
</g>
</svg>
